X: 1
T: Betty Burke
T: 8x32J3C
P: Dunnideer Jig
C: by Jim Stevenson (C)1995, arr. Terry Traub 4-29-2006
M: 6/8
L: 1/8
R: Jig
K: G
|: d|"G"gfg "C"a2 g|"G"e2 d B2 G|"C"cBc "Am"AcG|"D"FAe daf|"G"gfg "C"a2 g|"G"e2 d B2 G||
"C"cBc "D"AdD|"G"G3 G :||: AG|"D7"FAe d2 c|"G"BGg d3|"C"ecg "G"d>cB|
"Am"cAe "D7"def|"G"gab "C"a2 g|"G"edB G2 G|"C"cBA "D7"d2 F|"G"G3 G :|
